X: 12
T: The Tap Room
R: reel
M: 4/4
L: 1/8
K: Emin
E2BE dEBe|dBAF DEFD|E2BE dEBe|dBAF BEE2:|
Eeef gfed|BdAF DEFD|Eeef gfed|BdAF BEE2|
Eeef gfed|BdAF DEFA|afge fde^c|dBAF BEE2||


Tune 711	Setting 13776

